X: 11980
T: Enkronaspolskan
R: slip jig
M: 9/8
K: Aminor
E2e3d e2B|d3 B2d c2B|A2^G ABc dBc|A2^G ABc ABG|
E2e2d2 e2B|d3 B2d c2B|A2^G ABc dBc|AB^G A3-A2G:|
|:E3-E2^G ABc|d2c2Ac B2A|^G2^F GA2 B2c|A2^G ABc ABG|
E2^G ABc d2d-|d2c2Ac B2A|^G2^F GA2 B2c|AB^G A3-A2G:|

